X: 20501
T: John Leary's
R: slide
M: 12/8
K: Gmajor
|:DD/E/F|G2 e dBG F2 A E2 A|FAF DEF G2 D DD/E/F|
G2 e d2 G F2 A E2 A|F3 DEF G3-:|
|:G2 B|d2 B g2 B d2 c A2 B|cBc e2 d B2 d G2 B|
d2 B g2 B d2 c A2 g|fed CBA G3:|
|:g3|fed c2 e e2 d B2 d|fed cBA G2 A B2 g|
fed c2 e e2 d B2 d|ff/e/d cBA G3:|

